X:74
T: Man scheckt Jokele aus, S. 41f
N: L0034
O: Luxemburg
S: Die Luxemburger Volkslieder lterer Zeit, Luxemburg 1904 posth.]
N: 2. Weise folgt mit Sign 0035
R: Kinderlied, Kinderliedterno - erweitert]
M: 2/4
L: 1/16
K: A
 | A4A4 | A2E2E4 |
A2A2A2A2 | A4E4 |
A2A2A2B2 | A2E2E2E2 |
A2A2(3A2A2A2 | B4B4 |
e3dc2B2 | A4A4

@@@ Tune index: 8128
